24x24/mimetypes/application-vnd.wolfram.cdf.svg

<svg xmlns="http://www.w3.org/2000/svg" width="24" height="24" version="1.1">
 <path style="opacity:0.2" d="M 5,2.5 C 4.446,2.5 4,2.946 4,3.5 V 21.5 C 4,22.054 4.446,22.5 5,22.5 H 19 C 19.554,22.5 20,22.054 20,21.5 V 8.5 L 14,2.5 Z"/>
 <path style="fill:#f4f4f7" d="M 5,2 C 4.446,2 4,2.446 4,3 V 21 C 4,21.554 4.446,22 5,22 H 19 C 19.554,22 20,21.554 20,21 V 8 L 14,2 Z"/>
 <path style="opacity:0.2" d="M 20,8.5 14,2.5 V 7.5 C 14,8.054 14.446,8.5 15,8.5 Z"/>
 <path style="fill:#fafafa" d="M 20,8 14,2 V 7 C 14,7.554 14.446,8 15,8 Z"/>
 <path style="opacity:0.2;fill:#f4f4f7" d="M 5 2 C 4.446 2 4 2.446 4 3 L 4 3.5 C 4 2.946 4.446 2.5 5 2.5 L 14 2.5 L 14 2 L 5 2 z"/>
 <path style="opacity:0.1" d="M 11.193359,10.5 C 8.834747,10.499974 6.999927,12.391676 7,14.615234 c 3.35e-5,2.223486 1.6570887,3.884792 4.015625,3.884766 2.973285,-0.183424 3.564141,-4.256879 0.970703,-3.779297 -0.0313,0.09678 0.727205,0.375361 0.78125,0.882813 0.106227,0.997402 -0.721943,1.599505 -1.755859,1.410156 -0.755399,-0.138343 -1.666651,-0.747455 -1.84375,-1.353516 -0.163745,-0.560367 -0.08209,-1.233062 0.0918,-1.679687 0.820945,-2.108587 3.718521,-2.667067 4.740234,-2.640625 C 13.200654,10.766583 12.321796,10.501099 11.193362,10.5 Z m 1.791016,2 c -2.973285,0.183424 -3.564141,4.256879 -0.970703,3.779297 0.0313,-0.09678 -0.727205,-0.375361 -0.78125,-0.882813 -0.106227,-0.997402 0.721943,-1.599505 1.755859,-1.410156 0.755399,0.138343 1.668604,0.747455 1.845703,1.353516 0.163745,0.560367 0.08209,1.233062 -0.0918,1.679687 C 13.921241,19.128118 11.021713,19.686597 10,19.660156 10.799349,20.233417 11.678207,20.498901 12.806641,20.5 15.165254,20.500026 17.000073,18.608324 17,16.384766 16.999966,14.16128 15.342912,12.499974 12.984375,12.5 Z"/>
 <path style="fill:#d6342a" d="M 11.193359,10 C 8.834747,9.999974 6.999927,11.891676 7,14.115234 7.0000335,16.33872 8.6570887,18.000026 11.015625,18 c 2.973285,-0.183424 3.564141,-4.256879 0.970703,-3.779297 -0.0313,0.09678 0.727205,0.375361 0.78125,0.882813 0.106227,0.997402 -0.721943,1.599505 -1.755859,1.410156 -0.755399,-0.138343 -1.666651,-0.747455 -1.84375,-1.353516 -0.163745,-0.560367 -0.08209,-1.233062 0.0918,-1.679687 0.820945,-2.108587 3.718521,-2.667067 4.740234,-2.640625 C 13.200654,10.266583 12.321796,10.001099 11.193362,10 Z m 1.791016,2 c -2.973285,0.183424 -3.564141,4.256879 -0.970703,3.779297 0.0313,-0.09678 -0.727205,-0.375361 -0.78125,-0.882813 -0.106227,-0.997402 0.721943,-1.599505 1.755859,-1.410156 0.755399,0.138343 1.668604,0.747455 1.845703,1.353516 0.163745,0.560367 0.08209,1.233062 -0.0918,1.679687 C 13.921241,18.628118 11.021713,19.186597 10,19.160156 10.799349,19.733417 11.678207,19.998901 12.806641,20 15.165254,20.000026 17.000073,18.108324 17,15.884766 16.999966,13.66128 15.342912,11.999974 12.984375,12 Z"/>
</svg>

<svg xmlns="http://www.w3.org/2000/svg" width="24" height="24"><path style="opacity:.2" d="M5 2.5c-.554 0-1 .446-1 1v18c0 .554.446 1 1 1h14c.554 0 1-.446 1-1v-13l-6-6z"/><path style="fill:#f4f4f7" d="M5 2c-.554 0-1 .446-1 1v18c0 .554.446 1 1 1h14c.554 0 1-.446 1-1V8l-6-6z"/><path style="opacity:.2" d="m20 8.5-6-6v5c0 .554.446 1 1 1z"/><path style="fill:#fafafa" d="m20 8-6-6v5c0 .554.446 1 1 1z"/><path style="opacity:.2;fill:#f4f4f7" d="M5 2c-.554 0-1 .446-1 1v.5c0-.554.446-1 1-1h9V2H5z"/><path style="opacity:.1" d="M11.193 10.5C8.835 10.5 7 12.392 7 14.615 7 16.84 8.657 18.5 11.016 18.5c2.973-.183 3.564-4.257.97-3.78-.031.097.728.376.782.884.106.997-.722 1.599-1.756 1.41-.756-.139-1.667-.748-1.844-1.354-.164-.56-.082-1.233.092-1.68.82-2.108 3.718-2.667 4.74-2.64-.8-.573-1.678-.839-2.807-.84zm1.791 2c-2.973.183-3.564 4.257-.97 3.78.031-.097-.728-.376-.782-.884-.106-.997.722-1.599 1.756-1.41.756.139 1.669.748 1.846 1.354.164.56.082 1.233-.092 1.68-.82 2.108-3.72 2.667-4.742 2.64.8.573 1.678.839 2.807.84 2.358 0 4.193-1.892 4.193-4.115 0-2.224-1.657-3.885-4.016-3.885z"/><path style="fill:#d6342a" d="M11.193 10C8.835 10 7 11.892 7 14.115 7 16.34 8.657 18 11.016 18c2.973-.183 3.564-4.257.97-3.78-.031.097.728.376.782.884.106.997-.722 1.599-1.756 1.41-.756-.139-1.667-.748-1.844-1.354-.164-.56-.082-1.233.092-1.68.82-2.108 3.718-2.667 4.74-2.64-.8-.573-1.678-.839-2.807-.84zm1.791 2c-2.973.183-3.564 4.257-.97 3.78.031-.097-.728-.376-.782-.884-.106-.997.722-1.599 1.756-1.41.756.139 1.669.748 1.846 1.354.164.56.082 1.233-.092 1.68-.82 2.108-3.72 2.667-4.742 2.64.8.573 1.678.839 2.807.84C15.165 20 17 18.108 17 15.885 17 13.66 15.343 12 12.984 12z"/></svg>
